X:1
T:G Major William Billings, 1794
T:Adapted from Psalm 108
T:O God, my heart is fixed Anthem. Transcribed from The Continental Harmony, 1794.
%%score [ 1 2 3 4 ]
L:1/8
Q:1/4=150
M:2/2
K:G
V:1 treble nm="Treble" snm="Tr."
V:2 treble nm="Counter" snm="C."
V:3 treble-8 nm="Tenor" snm="T."
V:4 bass nm="Bass" snm="B."
V:1
 z4 | z8 | z8 | z8 | z8 | z8 | z8 | z8 | z8 | z4 B4 | B2 B2 B2 B2 | e2 e2 d2 d2 | G4 A2 A2 | %13
 (B3 c d4) | B4 A2 G2 | G2 B2 e2 d2 | d2 G>A (B2 c2) | d2 d2 (d>edc | [Bd]8) | %19
"^Even with my glory," G2 A2 B2 c2 | (d2 B2) G4 | z8 | z8 | B2 B2 B2 A2 | A4 B4 | z8 | z8 | %27
 B2 B2 A2 G2 | F4 G4 | z8 | z8 | B2 A2 G2 G2 | d4 d4 |[M:3/2] z12 |: %34
"^A –   wake,   lute and   harp. _____                   I    my – self   will   a –" G4 B4 A2 A2 | %35
 (B3 c d4) z4 | d2 B2 (c2 A2) B2 G2 | %37
[M:2/2]"^– wake, _______________________________              I      my – self         will   a     –   wake,        I     my  –  self            will      a    –    wake,   will    a –" (d>ed>cB>cB>A | %38
 G2) z2 G2 A2 | B4 c2 BA | G2 z2 B2 c2 | d4 dc BA | (G2 c2) B2 A2 | %43
"^– wake, ______________________________   I    my – self will awake,        I myself will a –wake,  I   my –self    will  a – wake right   ear       –        ly." (B4 d>ed>c | %44
 B>cB>A) G2 A2 | GABc (d2 A2) | A2 A2 B2 BB | B2 z2 e2 c2 | dcBA GA Bc | (d>edB G4) |1 z8 :|2 z8 || %52
 z8 | z8 | z8 | z8 | z8 | z8 | z8 | z8 | z4"^a –" d4 | e4 d4 | d4 d4 |[M:2/4][Q:1/4=80] z2 B2 |: %64
 AA BA | B2 B2 | Bd ed | d2 d2 | e2 d2 | Gc BA | B4 | Bc BA | G2 cB | AB cB | A3 z | GG G2 | %76
 G2 d2 | (gfed/c/ | Bc) dg | fe dd |1 d4 ||1 z2 B2 :|2 %82
"^earth.                                                                                                                                                               Give us help from trouble,  Give us help from" d4 || %83
[K:Bb][M:2/2][Q:1/4=150] z8 | z8 | z8 | z8 | z8 | z8 | z8 | d2 c2 B2 c2 | d2 G6 | B2 c2 d2 cB | %93
"^trouble,                                     For    vain, ________     For ______   vain,                      For       vain  is  the   help    of      man." A2 A6 | %94
 z8 | d4 G4- | G4 (3(d2 c2 B2) | A4 z4 | z4 B4 | A4 G2 B2 | (A2 G2) ^F4 | G8 | z8 || %103
[K:G][M:2/4][Q:1/4=80] B2 d2 | dG Ac | Bd d2 | gf ed | cA A2 | Gd c2 | %109
 Bd d"^For     it ________   is      he         that  shall"B | cd ec | dB Gc | %112
"^tread down  our    e    –   ne – mies," BA GA | B>B B2 | z4 | z4 | z4 | z4 | z2"^For" d2 | %119
 cB AG | GA BA | G2 DD | G>A Bd | d>c BA | A>A AG | dc Be | d2 eg | fe dd | d>d d2 | z4 | d2 B2 | %131
 BG c2 | Bd dB | dd ec | dB Gc | BA Bc | d>d d2 |:[M:3/2][Q:1/4=150] z4 z4 B3 B | B4 B4 B3 B | %139
 e4 e4 d3 d | G4 G4 A4 | A8 B3 B | e4 e4 A3 A | d4 d4 d2 g2 | (f2 e2) d4 d4 | d8 d4 | %146
 (d3 c B4) A4 | A8 B2 B2 | e2 e2 d8 | d12 :| %150
V:2
 z4 | z8 | z8 | z8 | z8 | z8 | z8 | z8 | z8 | z4"^O" G4 | %10
"^God, my heart is fix–ed, I will   sing  and give  praise.          O  God, my heart is fix–ed,    I   will    sing        and     give  praise. ____________" G2 D2 E2 EF | %11
 G2 G2 G2 G2 | (G2 D2) E2 F2 | (G4 F4) | G4 F2 EF | G2 D2 E2 G2 | F2 E2 F4 | G2 G2 (F2 ED | G8) | %19
 z8 | z8 | z8 | z8 | %23
"^Even with  my       glory,     Even with my  glo  –  ry,    Even with my glory," G2 G2 G2 FE | %24
 F4 G4 | G2 F2 E2 D2 | (G2 FE) D4 | G2 D2 E2 E2 | D4 D4 | z8 | z8 | %31
"^Even  with  my   glo  – ry." G2 F2 E2 E2 | F4 G4 |[M:3/2] z12 |: %34
"^A     –   wake, _______________                  A   –     wake,    lute     and" D4 (E4 F4 | %35
 G8) G4 | (G2 F2) (E2 F2) G4 | %37
[M:2/2]"^harp, _________________                       I    my–self           will    a   –  wake,            I     my–self              will   a  –   wake,             will  a – wake," (F3 E D2) z2 | %38
 G2 G2 G2 z2 | E2 E2 (E2 F2) | G2 G2 G2 z2 | G2 G2 (F2 D2) | G2 G2 G2 z2 | %43
"^I  my–self _______         will     a    –    wake,    will    a  –  wake,       I  my–self            will  a–wake    right              ear         –         ly." G2 G2 (F2 D2) | %44
 G2 F2 (G2 F2) | E2 D2 D4 | D2 D2 D4 | D2 D2 E4 | (D3 E) D4 | D8 |1 z8 :|2 z8 || z8 | z8 | z8 | %55
 z8 | z8 | z8 | z8 | z8 | z4"^a –" G4 | %61
"^–mong the nations.              Be    thou  ex – al – ted    high,  be  thou  ex – al – ted  high, O  God, a – bove  the    heavens, And thy  glo  –" G4 F4 | %62
 G4 G4 |[M:2/4] z2 G2 |: FF GD | G2 D2 | ED GG | F2 G2 | G2 G2 | G2 D2 | D4 | GA (3GFE | %72
"^–ry  above      all         the      earth,  thy    glo       –       –       –     ry,  thy     glo       –       –       –       –  ry   a   –   bove   all   the    earth.        Be" D2 DD | %73
 E2 FG | F3 F | (GDEF | G2) FF | (EFGF | E2) FG | DG FF |1 G4 ||1 z2 G2 :|2 %82
"^earth.                                                                                                                  Give us help from trouble,                                              Give us help from" G4 || %83
[K:Bb][M:2/2] z8 | z8 | z8 | z8 | z8 | D2 G2 F2 E2 | D2 D6 | z8 | z8 | G2 A2 G2 F2 | %93
"^trouble,                                     For    vain, ________      For            vain, ____________   For       vain  is  the   help    of      man.                    Through God" F2 F6 | %94
 z8 | F4 G4- | G4 F4 | (F4 F2 E2 | D4) F4 | F4 D2 D2 | E4 D4 | D8 | z8 ||[K:G][M:2/4] D2 G2 | %104
"^we  shall  do         va–liant–ly,      we  shall  do          va–liant–ly,       we  shall  do          va–liant–ly," FD AG | %105
 FD G2 | GD GF | EE E2 | EF GD | GG G2 | z4 |"^For         it     is" G2 GG | %112
"^he       that  shall     tread      down our    e – ne –mies,  For    it      is    he              that  shall  tread       down our  e  –  ne  –  mies,   For" A2 D E/F/ | %113
 G2 GD | E>F EE | DD E2 | DD E2 | EE E>E | E2 D2 | %119
"^it ______  is       he     that  shall  tread down our  e – ne –mies, our  e  –  ne – mies,  our  e – ne – mies,  For    it ________   is      he that  shall" GD EG | %120
 DE EE | DE DD | D>D DF | G>G G F/E/ | F>F FF | GA GE | F2 GG | %127
"^tread down our e – ne –mies.         Through God we shall do          va–liant–ly,  For       it __________  is      he       that  shall   tread  down our" DG FF | %128
 G>G G2 | z4 | D2 G2 | GG G2 | FD DD | EF GG | F2 EE | DE FF | %136
"^e– ne –mies.                    Hal – le – lu–jah,  Hal – le – lu–jah, Hal–le–lu–jah,    A – men. Hal – le – lu–jah,  Hal –le–lu–jah, Hal–le–lu–jah,    A –" G>G G2 |: %137
[M:3/2] z4 z4 G3 G | G4 G4 G3 G | G4 G4 G3 G | G4 D4 E4 | F8 D3 D | G4 G4 E3 F | G4 G4 F2 E2 | %144
 (D2 E2) F4 F4 |"^– men.  A  –  men,           A  –  men,    Hal–le–lu–jah,  A   –   men." G8 F4 | %146
 G8 E4 | F8 G2 F2 | G2 G2 F8 | G12 :| %150
V:3
"^O God, my heart is fix–ed, I will sing and give praise." G4 | G2 A2 B2 c2 | d2 G2 d2 c2 | %3
 B2 A2 G2 F2 | G8 | z8 | z8 | z8 | z8 | z4 d4 | d2 d2 G2 G2 | c2 c2 B2 B2 | (e2 d2) c2 c2 | %13
 (B4 A4) | d4 d2 G2 | e2 d2 c2 B2 | A2 G2 (d2 c2) | B2 B2 (A4 | G8) | z8 | z8 | z8 | z8 | %23
 d2 e2 d2 ^c2 | d4 d4 | z8 | z8 | d2 G2 c2 B2 | A4 G4 |"^Even with my" G2 A2 B2 c2 | %30
"^glo      –       ry," dcBA G4 | G2 d2 c2 B2 | A4 G4 |[M:3/2] z12 |: %34
 z4"^A  –  wake, _________      A –   wake,   lute     and         harp, _____" G4 d4- | d4 d4 e4 | %36
 d4 c4 (B4 | %37
[M:2/2]"^__________               I          my    –    self          will   a  –  wake,        I     my   –   self          will   a  –   wake,           I         my  –   self         will  a –" A4) B2 c2 | %38
 d4 e2 f2 | g2 z2 g2 d2 | e4 d2 c2 | B4 A2 G2 | (d2 e2) d2 c2 | %43
"^–wake,  will      a     –     wake,             a      –    wake,           right _______        ear       –        –     ly,          right               ear        –         ly." B2 z2 A2 G2 | %44
 d2 z2 c4 | B2 z2 A4- | A4 G4- | G4 G4 | (d3 c) (B2 AB) | G8 |1 z8 :|2 z8 || z8 | z8 | z8 | z8 | %56
 z4"^And   I          will       sing   prai – ses  unto     thee             a –" d4 | %57
 (c2 B2) (A2 G2) | (B2 c2) d4 | c4 B2 A2 | (B3 A B2) d2 | (c2 B2) A4 | G4 G4 |[M:2/4] z2 d2 |: %64
 dd dd | e2 d2 | GF GB | A2 B2 | c2 d2 | e2 f2 | g4 | dd (3edc | B2 AB | cB AG | d3 B | (cBcd | %76
 e2) dd | (edef | g2) fe | dc BA |1 G4 ||1 z2 d2 :|2 %82
"^earth.                       Give us help from trouble,                                                                                                                                       Give us help from" G4 || %83
[K:Bb][M:2/2] z8 | G2 F2 G2 B2 | A2 F6 | z8 | z8 | z8 | z8 | z8 | z8 | d2 c2 B2 c2 | %93
"^trouble,  For vain  _____________________________________________________________________________________   is    the   help      of     man." d2 d4 d2 | %94
 (e2 d2 c2 d>e | d4 c2 B2 | c2 B2 A2 B2 | c4 B2 A2 | B2 A2 B2 d2 | c4) B3 d | (c2 B2) A4 | G8 | %102
 z8 ||[K:G][M:2/4] G2 B2 | AB c2 | dB G2 | cB cd | ec A2 | cB cA | %109
 dB G"^For     it ________   is      he         that  shall"G | cB ce | d2 eg | %112
"^tread down our      e   –    ne –mies,       Through  God           we  shall  do               va–liant–ly,              We  shall   do              va–liant–ly,  For" fe dc | %113
 B>A G2 | G2 B2 | AB c2 | dB G2 | cB cd | ec AA | cB ce | dc Bc | dc BA | G>G GA | B>c B>^c | %124
 d>d dc | BA B^c | d2 ec | dc BA | G>G G2 | z4 | B2 d2 | ec ec | dB GG | cB ce | d2 eg | fe dc | %136
 B>A G2 |:[M:3/2] z4 z4 d3 d | d4 d4 G3 G | c4 c4 B3 B | e4 d4 ^c4 | d8 d3 d | G4 G4 c3 c | %143
 B4 B4 A2 G2 | (d2 c2) B4 A4 | G8 A4 | B8 ^c4 | d8 B2 d2 | c2 B2 A8 | G12 :| %150
V:4
 z4 | z8 | z8 | z8 | %4
 z4"^O God, my heart is fix–ed, I will   sing  and give  praise. _______________" G,,4 | %5
 G,,2 A,,2 B,,2 C,2 | D,2 D,2 D,2 D,2 | (G,2 F,2) G,2 G,2 | (A,G,F,E, D,4- | D,4) G,4 | %10
 G,2 G,F, E,2 E,D, | C,2 C,2 G,,2 G,,2 | (C,2 B,,2) A,,2 A,,2 | (G,,4 D,4) | G,4 D,2 E,D, | %15
 C,2 B,,2 A,,2 G,,2 | D,2 C,2 (B,,2 A,,2) | G,,A,, B,,C, (D,C,B,,A,, | G,,8) | z8 | z8 | %21
"^Even with my glory," G,,2 A,,2 B,,2 C,2 | (D,2 B,,2) G,,4 | G,2 G,2 G,2 A,2 | D,4 G,4 | z8 | z8 | %27
 G,2 G,2 C,2 C,2 | D,4 G,,4 | z8 | z8 | G,2 D,2 E,2 C,2 | D,4 G,,4 | %33
[M:3/2] z4 z4"^A      –     wake,             A      –      wake,             A    –  wake,    lute      and" D,4 |: %34
 (G,3 F, E,4) D,4 | (G,3 A, B,4) C4 | B,4 A,4 G,4 | %37
[M:2/2]"^harp, _________________                       I    my–self           will    a   –  wake,           I      my – self           wil  l   a – wake,                I    my – self" D,8 | %38
 G,2 G,2 (G,2 F,2) | E,2 E,2 E,2 z2 | C2 C2 (B,2 A,2) | G,2 G,2 D,2 z2 | G,2 G,2 G,2 z2 | %43
"^will  a–wake,                I          my   –  self        will    a – wake,         I  myself               will  awake       right _______   ear       –          ly." G,2 G,2 D,2 z2 | %44
 G,2 F,2 (E,2 F,2) | G,2 G,2 D,2 z2 | D,2 D,2 G,,2 z2 | G,,2 G,,2 C,4 | (B,,2 A,,2) G,,4 | G,,8 |1 %50
 z4"^A –                I        will    praise    thee,        O      Lord   a – mong   the       nations." D,4 :|2 %51
 z4 G,4 || (G,2 F,2) (E,2 D,2) | (G,2 F,2 E,2) D,2 | G,6 B,2 | (A,2 G,2) (F,2 E,2) | D,4 D,4 | z8 | %58
 z8 | z8 | z4"^a –" G,4 | C,4 D,4 | G,,4 G,,4 |[M:2/4] z2 G,2 |: D,D, G,F, | E,2 G,2 | E,D, C,G,, | %67
 D,2 G,2 | E,2 G,2 | C2 D2 | G,4 | G,F, E,F, | G,2 F,G, | A,G, F,E, | D,3 D, | (E,D,C,B,, | %76
 C,2) B,,B,, | C,B,,C,D, | E,2 D,C, | B,,C, D,D, |1 G,,4 ||1 z2 G,2 :|2 %82
"^earth.                                                                    Give us help from trouble,                                                                                           Give us help from" G,,4 || %83
[K:Bb][M:2/2] z8 | z8 | z8 | G,2 B,2 A,2 G,2 | F,2 D,6 | z8 | z8 | z8 | z8 | G,2 ^F,2 G,2 A,2 | %93
"^trouble, For vain, _____________     For vain, ______________               For  vain _____       for     vain  is  the   help      of       man." D,2 D,4 D,2 | %94
 (C,2 B,,2 A,,2 G,,2 | D,2) D,2 (E,3 D, | C,2 E,2 D,4) | F,4 (B,,2 C,2 | D,4) B,,4 | F,4 G,2 G,2 | %100
 C,4 D,4 | G,,8 | z8 ||[K:G][M:2/4] G,2 G,2 | D,G, F,E, | D,G, G,2 | E,D, C,B,, | A,,A,, A,,2 | %108
 E,D, E,F, | G,G, G,2 | z4 |"^Through  God" G,2 E,2 | %112
"^we  shall  do            va –liant – ly,              For           it      is      he             who  will    tread   down our    e  –   ne –mies," D,C, B,,A,, | %113
 G,,G,, G,,2 | C,2 B,,C, | D,2 C,C, | B,,2 C,B,, | A,,>A,, A,,2 | z2"^For" D,2 | E,D, C,C, | %120
 B,,A,, G,,A,, | B,,C, D,D, | G,,>G,, G,,D, | G,>G, G,A, | D,>D, D, E,/F,/ | G,F, G,A, | D,2 C,C, | %127
 B,,C, D,D, | G,,>G,, G,,2 | z4 | G,2 G,2 | E,E, C,2 | D,G, G, G,/F,/ | E,D, C,C, | B,,2 C,C, | %135
 D,C, B,,A,, | G,,>G,, G,,2 |:[M:3/2] z4 z4 G,3 G, | G,4 G,4 E,3 E, | C,4 C,4 G,,3 G,, | %140
 C,4 B,,4 A,,4 | D,8 B,,3 B,, | C,4 C,4 A,,3 A,, | G,,4 G,,4 D,2 C,2 | (B,,2 C,2) D,4 D,4 | %145
 G,,8 D,4 | G,8 A,4 | D,8 G,2 D,2 | E,2 C,2 D,8 | G,,12 :| %150

